dist/img/windows_icon.svg

<svg width="28" height="28" viewBox="0 0 28 28" fill="none" xmlns="http://www.w3.org/2000/svg">
<path d="M0.5 4.32275L11.534 2.82466L11.5389 13.4351L0.51008 13.4977L0.5 4.32275ZM11.5288 14.6576L11.5374 25.2773L0.508565 23.7657L0.507946 14.5864L11.5288 14.6576ZM12.8664 2.62868L27.4966 0.5V13.3001L12.8664 13.4159V2.62868ZM27.5 14.7575L27.4966 27.5L12.8663 25.4415L12.8458 14.7336L27.5 14.7575Z" fill="white"/>
</svg>

<svg width="28" height="28" fill="none" xmlns="http://www.w3.org/2000/svg"><path d="M.5 4.323l11.034-1.498.005 10.61-11.029.063L.5 4.323zm11.029 10.335l.008 10.62L.51 23.765l-.001-9.18 11.02.072zm1.337-12.03L27.496.5v12.8l-14.63.116V2.629zM27.5 14.759L27.497 27.5l-14.63-2.058-.021-10.708 14.654.024z" fill="#fff"/></svg>
